X: 826
T: No.1 the Sailor's Hornpipe
R: hornpipe
%S: s:4 b:16(4+4+4+4)
B: Francis O'Neill: "The Dance Music of Ireland" (1907) #826
Z: Frank Nordberg - http://www.musicaviva.com
F: http://www.musicaviva.com/abc/tunes/ireland/oneill-1001/0826/oneill-1001-0826-1.abc
%Title in index: "Sailor's hornpipe, No. 1"
N: Compacted via repeats and multiple endings [JC]
M: C|
L: 1/8
K: D
"^A"[|]\
 (AG) | FAdc d2(AG) | FAdc d2 [1,3 (A^G) | Aced cBA^G | Aced cB :|[2,4 A2 | BcdB cdec | f2d2 d2 :|
"^B"\
|: (ef) | gfge c2(Ac) | dcdB A2(GF)  | GABG FGAF  | EDEF E2 ||
|| (ef) | gfge c2(ec) | dcdB A2(^GA) | BcdB cdec  | f2d2 d2 :|
